img/step__02.svg

<svg width="50" height="64" viewBox="0 0 50 64" fill="none" xmlns="http://www.w3.org/2000/svg">
<path d="M26.1363 1.67273V1.32727H19.7954H18.5H12.1591V11H19.7954V7.2H25.7954V11.3455H33.4318V1.67273H26.1363Z" fill="#FF2B00"/>
<path d="M38.5455 23.7128C38.1364 23.7128 37.7273 23.7819 37.3182 23.9892V23.6438C37.3182 21.571 35.6819 19.9128 33.6364 19.9128H33.4319C32.8182 19.9128 32.2728 20.051 31.7273 20.3274C31.3864 18.6001 29.8864 17.3565 28.1137 17.3565C27.5001 17.3565 26.8864 17.4947 26.341 17.771V12.3819H32.8182C33.3637 12.3819 33.841 11.8983 33.841 11.3456V1.25829C33.841 0.70556 33.3637 0.221924 32.8182 0.221924H11.6819C11.1364 0.221924 10.6592 0.70556 10.6592 1.25829V11.4147C10.6592 11.9674 11.1364 12.451 11.6819 12.451H18.841V37.8074L12.841 32.8328C10.3183 30.691 6.70461 30.8983 4.38643 33.1783C4.04552 33.5238 3.97734 34.1456 4.31825 34.5601L18.841 53.4219V62.1274C18.841 62.6801 19.3182 63.1637 19.8637 63.1637C20.4092 63.1637 20.8864 62.6801 20.8864 62.1274V53.0765C20.8864 52.8692 20.8183 52.5928 20.6819 52.4547L6.50007 34.0765C8.06825 33.0401 10.1137 33.1783 11.5455 34.4219L19.2501 40.7783C19.6592 41.1237 20.341 41.0546 20.6819 40.6401C20.8183 40.4328 20.8864 40.2256 20.8864 40.0183V8.99648C20.8864 8.0983 21.6364 7.3383 22.5228 7.3383H22.7273C23.6137 7.3383 24.3637 8.0983 24.3637 8.99648V31.0365C24.3637 31.5892 24.841 32.0728 25.3864 32.0728C25.9319 32.0728 26.4092 31.5892 26.4092 31.0365V21.0183C26.4773 20.1201 27.2955 19.4292 28.1819 19.4292C29.0682 19.4292 29.8182 20.1892 29.8182 21.0874V23.4365V23.5056V23.5747V31.0365C29.8182 31.5892 30.2955 32.0728 30.841 32.0728C31.3864 32.0728 31.8637 31.5892 31.8637 31.0365V23.5747C31.8637 22.6765 32.6137 21.9165 33.5001 21.9165H33.7046C34.591 21.9165 35.341 22.6765 35.341 23.5747V31.0365C35.341 31.5892 35.8182 32.0728 36.3637 32.0728C36.9092 32.0728 37.3864 31.5892 37.3864 31.0365V27.2365C37.3182 26.5456 37.7955 25.8547 38.4773 25.7856C38.5455 25.7856 38.5455 25.7856 38.6137 25.7856C39.4319 25.7856 40.1137 26.4765 40.1137 27.2365V45.131C40.1137 47.9637 39.0228 50.7274 36.9773 52.731C36.7728 52.9383 36.6364 53.2147 36.7046 53.491V61.4365C36.7046 61.9892 37.1819 62.4728 37.7273 62.4728C38.2728 62.4728 38.7501 61.9892 38.7501 61.4365V53.9056C40.9319 51.5565 42.1592 48.3783 42.1592 45.131V27.2365C42.091 25.2328 40.5228 23.6437 38.5455 23.7128ZM22.7273 5.26557H22.5228C20.4773 5.26557 18.841 6.92375 18.841 8.99648V10.3783H12.7046V2.36375H31.7955V10.3783H26.341V8.99648C26.4091 6.92375 24.7728 5.26557 22.7273 5.26557Z" fill="black"/>
<path d="M48.5682 4.4364H38.341C37.7955 4.4364 37.3182 4.92004 37.3182 5.47277C37.3182 6.02549 37.7955 6.50913 38.341 6.50913H48.5682C49.1137 6.50913 49.591 6.02549 49.591 5.47277C49.591 4.92004 49.1137 4.4364 48.5682 4.4364Z" fill="black"/>
<path d="M38.4773 10.6546C38.0682 10.2401 37.3864 10.3092 37.0455 10.7237C36.7046 11.1383 36.7046 11.7601 37.0455 12.1055L46.1818 21.3637C46.6591 21.7092 47.2727 21.571 47.6137 21.1564C47.8864 20.811 47.8864 20.2582 47.6137 19.9128L38.4773 10.6546Z" fill="black"/>
<path d="M8.75001 14.04C8.34092 13.6255 7.72728 13.6255 7.31819 14.04L0.500007 20.9491C0.0909161 21.3637 0.090912 21.9855 0.431821 22.4C0.840912 22.8146 1.45455 22.8146 1.86364 22.4691C1.86364 22.4691 1.93183 22.4691 1.93183 22.4L8.75001 15.4909C9.1591 15.0764 9.22728 14.4546 8.81819 14.04C8.75001 14.04 8.75001 14.04 8.75001 14.04Z" fill="black"/>
</svg>

<svg width="50" height="64" fill="none" xmlns="http://www.w3.org/2000/svg"><path d="M26.136 1.673v-.346H12.16V11h7.635V7.2h6v4.145h7.637V1.673h-7.296z" fill="#FF2B00"/><path d="M38.545 23.713c-.409 0-.818.069-1.227.276v-.345c0-2.073-1.636-3.731-3.682-3.731h-.204a3.66 3.66 0 00-1.705.414 3.672 3.672 0 00-3.613-2.97c-.614 0-1.228.138-1.773.414v-5.39h6.477c.546 0 1.023-.483 1.023-1.035V1.258c0-.552-.477-1.036-1.023-1.036H11.682c-.546 0-1.023.484-1.023 1.036v10.157c0 .552.477 1.036 1.023 1.036h7.159v25.356l-6-4.974c-2.523-2.142-6.136-1.935-8.455.345-.34.346-.409.968-.068 1.382l14.523 18.862v8.705c0 .553.477 1.037 1.023 1.037.545 0 1.022-.484 1.022-1.037v-9.05c0-.208-.068-.484-.204-.622L6.5 34.077a4.16 4.16 0 015.046.345l7.704 6.356c.41.346 1.091.277 1.432-.138.136-.207.204-.414.204-.622V8.996c0-.898.75-1.658 1.637-1.658h.204c.887 0 1.637.76 1.637 1.658v22.04c0 .553.477 1.037 1.022 1.037.546 0 1.023-.484 1.023-1.037V21.018c.068-.898.887-1.589 1.773-1.589.886 0 1.636.76 1.636 1.658v9.95c0 .552.477 1.036 1.023 1.036.545 0 1.023-.484 1.023-1.037v-7.461c0-.898.75-1.659 1.636-1.659h.205c.886 0 1.636.76 1.636 1.659v7.462c0 .552.477 1.036 1.023 1.036.545 0 1.022-.484 1.022-1.037v-3.8c-.068-.69.41-1.381 1.091-1.45h.137c.818 0 1.5.69 1.5 1.45v17.895c0 2.833-1.091 5.596-3.137 7.6-.204.207-.34.484-.272.76v7.946c0 .552.477 1.036 1.022 1.036.546 0 1.023-.484 1.023-1.036v-7.531c2.182-2.35 3.41-5.528 3.41-8.775V27.236c-.069-2.003-1.637-3.592-3.614-3.523zM22.727 5.266h-.204c-2.046 0-3.682 1.658-3.682 3.73v1.382h-6.136V2.364h19.09v8.014h-5.454V8.996a3.593 3.593 0 00-3.614-3.73zm25.841-.83H38.341c-.546 0-1.023.484-1.023 1.037 0 .552.477 1.036 1.023 1.036h10.227c.546 0 1.023-.484 1.023-1.036 0-.553-.477-1.037-1.023-1.037z" fill="#000"/><path d="M38.477 10.655c-.409-.415-1.09-.346-1.431.069-.341.414-.341 1.036 0 1.381l9.136 9.259c.477.345 1.09.207 1.432-.208a1.047 1.047 0 000-1.243l-9.137-9.258zM8.75 14.04a.98.98 0 00-1.432 0L.5 20.95a1.079 1.079 0 00-.068 1.45 1.045 1.045 0 001.432.07s.068 0 .068-.07l6.818-6.91c.41-.414.477-1.035.068-1.45H8.75z" fill="#000"/></svg>
